src/pos-icons/account-star.svg

<svg height="24" viewBox="0 0 24 24" width="24" xmlns="http://www.w3.org/2000/svg"><path d="m15 14c-2.67 0-8 1.33-8 4v2h16v-2c0-2.67-5.33-4-8-4m0-2a4 4 0 0 0 4-4 4 4 0 0 0 -4-4 4 4 0 0 0 -4 4 4 4 0 0 0 4 4m-10 1.28 2.45 1.49-.65-2.81 2.2-1.88-2.89-.25-1.11-2.64-1.13 2.64-2.87.25 2.18 1.88-.68 2.81z"/></svg>

<?xml version="1.0" encoding="UTF-8"?><!DOCTYPE svg PUBLIC "-//W3C//DTD SVG 1.1//EN" "http://www.w3.org/Graphics/SVG/1.1/DTD/svg11.dtd"><svg xmlns="http://www.w3.org/2000/svg" xmlns:xlink="http://www.w3.org/1999/xlink" version="1.1" id="mdi-account-star" width="24" height="24" viewBox="0 0 24 24"><path d="M15,14C12.33,14 7,15.33 7,18V20H23V18C23,15.33 17.67,14 15,14M15,12A4,4 0 0,0 19,8A4,4 0 0,0 15,4A4,4 0 0,0 11,8A4,4 0 0,0 15,12M5,13.28L7.45,14.77L6.8,11.96L9,10.08L6.11,9.83L5,7.19L3.87,9.83L1,10.08L3.18,11.96L2.5,14.77L5,13.28Z" /></svg>
